X: 1262
T: Koparan Sînemi Ağyâr Elidir
C: Bîmen Şen
O: Turkey
F: http://compmusic.upf.edu/node/140
N: kurdilihicazkar--sarki--agiraksak--koparan_sinemi--bimen_sen
N: makam= kurdilihicazkar
N: form= sarki
N: usul= agiraksak = 9/4
M: 9/4
L: 1/16
K: C _B _e _A 
Q: 1/4=75
%%MIDI tuningsystem comma53
f2g4a2 f4 c'3b b3a a3g g3a bc'ba g4  | \
w:  ARANAĞME  | 
ga2g f4 fg2f e4 d2cB g2fe dede dede d2c2  | 
w:   | 
z2e2 d2c2 z2a2 g2f2 e3d c2d2 B2c2 B2A2 G2F2  | \
w:   | 
B2c4c2 (3B2c2d2 (3e2d2c2 B3A BAAG G4 cd_3/4ef g4  | 
w:   | 
f2g4a2 f4 c'3b b3a a3g g3a bc'ba g4  | \
w:  ARANAĞME  | 
ga2g f4 fg2f e4 d2cB g2fe dede dede d2c2  | 
w:   | 
z2e2 d2c2 z2a2 g2f2 e3d c2d2 B2c2 B2A2 G2F2  | \
w:   | 
B2c4c2 (3B2c2d2 (3e2d2c2 B3A BAAG G3e dcBA G4  | 
w:   | 
g3a gf_3/4ef g4 f2g2 g6c'2 c'3b b3=a a3g  | \
w:  *  *  *  *  *  *  *  Ko pa ran  *  sî  | 
g2b=a gf_1/4e^3/4d e4 g2a2 g2f2 _7/8e2=d2 c8 d2_3/4e2  | 
w:  *  *  *  *  *  *  *  *  ne mi  ağ *  *  *  yâr   | 
c2d_3/4e fg=ac' b4 b2b2 b3a g2b2 a3g f2a2 g4  | \
w:  *  SAZ *  *  *  *  *  *  e li dir   | 
g2b=a gf_2/4ed c4 e2f2 g8 g2_ab agf2 e2f2  | 
w:  *  *  *  *  *  *  *  *  e li dir   SAZ  | 
g3/2f/ed cd_1/4ef g2f4g2 g8 g2ag f4 f2_e2  | \
w:  *  *  *  *  *  *  *  *  *  Dost_ e lin den   | 
f2gf e2d2 c2B2 c2d2 e2dc B2AG c8 B2_3/4A2  | 
w:  *  *  *  *  *  *  *  yü re ğim  *  *  *  *  *  yâ  | 
Bcde dcBA G4 c2d2 d3c B2d2 c8 B4  | \
w:  *  *  *  *  *  *  *  *  *  re li dir  *  *  *  yâ  | 
B2A4GF F2GA B2AG G8 g2ab agf2 _3/4e2f2  | 
w:  *  *  *  *  *  *  *  re li *  dir   SAZ  | 
g3/2f/ed cd_1/4ef g2f4g2 g8 g2ag f4 f2_e2  | \
w:  *  *  *  *  *  *  *  *  *  Dost_ e lin den   | 
f2gf e2d2 c2B2 c2d2 e2dc B2AG c8 B2_3/4A2  | 
w:  *  *  *  *  *  *  *  yü re ğim  *  *  *  *  *  yâ  | 
Bcde dcBA G4 c2d2 d3c B2d2 c8 B4  | \
w:  *  *  *  *  *  *  *  *  *  re li dir  *  *  *  yâ  | 
B2A4GF F2GA B2AG G8 =a2b4a2 d'2c'b  | 
w:  *  *  *  *  *  *  *  re li *  dir   SAZ  | 
bb=ag fgac' b2g4a2 b8 d'3c' b4 a4  | \
w:  *  *  *  *  *  *  *  *  *  Yâ re me  yâ  | 
b=abc' a2g2 g4 a2b2 a3g f2a2 g3f _2/4e2g2 f2g2  | 
w:  *  *  *  *  *  *  *  re  a çan  *  *  *  yâr   | 
{=a}g2f4_1/4e^3/4d e4 c'2d'2 d'6d'c' c'3b b3a a3g  | \
w:  *  *  *  *  *  *  e li dir   | 
g2b=a gf_2/4ed c4 e2f2 g8 g2_ab agf2 e2f2  | 
w:  *  *  *  *  *  *  *  *  e li dir   SAZ  | 
g3/2f/ed cd_1/4ef g2f4g2 g8 g2ag f4 f2_e2  | \
w:  *  *  *  *  *  *  *  *  *  Dost_ e lin den   | 
f2gf e2d2 c2B2 c2d2 e2dc B2AG c8 B2_3/4A2  | 
w:  *  *  *  *  *  *  *  yü re ğim  *  *  *  *  *  yâ  | 
Bcde dcBA G4 c2d2 d3c B2d2 c8 B4  | \
w:  *  *  *  *  *  *  *  *  *  re li dir  *  *  *  yâ  | 
B2A4GF F2GA B2AG G8 g2ab agf2 _3/4e2f2  | 
w:  *  *  *  *  *  *  *  re li *  dir   SAZ  | 
g3/2f/ed cd_1/4ef g2f4g2 g8 g2ag f4 f2_e2  | \
w:  *  *  *  *  *  *  *  *  *  Dost_ e lin den   | 
f2gf e2d2 c2B2 c2d2 e2dc B2AG c8 B2_3/4A2  | 
w:  *  *  *  *  *  *  *  yü re ğim  *  *  *  *  *  yâ  | 
Bcde dcBA G4 c2d2 d3c B2d2 c8 B4  | \
w:  *  *  *  *  *  *  *  *  *  re li dir  *  *  *  yâ  | 
B2A4GF F2GA B2AG G12 z8  | 
w:  *  *  KARAR *  *  *  *  re li *  dir    | 
|


